numeric-9-plus-box-outline.svg

<svg fill="currentColor" viewBox="0 0 24 24"><path d="M19 11h-2V9h-2v2h-2v2h2v2h2v-2h2v6H5V5h14m0-2H5a2 2 0 0 0-2 2v14a2 2 0 0 0 2 2h14a2 2 0 0 0 2-2V5a2 2 0 0 0-2-2M9 11v-1h1v1m2 3v-4a2 2 0 0 0-2-2H9a2 2 0 0 0-2 2v1a2 2 0 0 0 2 2h1v1H7v2h3a2 2 0 0 0 2-2"/></svg>

<svg  viewBox="0 0 24 24" fill="currentColor"><path  d="M19,11H17V9H15V11H13V13H15V15H17V13H19V19H5V5H19M19,3H5A2,2 0 0,0 3,5V19A2,2 0 0,0 5,21H19A2,2 0 0,0 21,19V5A2,2 0 0,0 19,3M9,11V10H10V11M12,14V10C12,8.89 11.1,8 10,8H9A2,2 0 0,0 7,10V11C7,12.11 7.9,13 9,13H10V14H7V16H10A2,2 0 0,0 12,14Z"/></svg>
